X:1143
T:The Soldier's Wedding.
M:2/4
L:1/16
Q:1/4=104
Z:Jack Campin * www.campin.me.uk * 2009
K:D
A2de d2d2|cdec d2d2|efge dcBA|d2de d4  |
A2de d2d2|cdec d2d2|efge dcBA|d2de d4 :|
f2fg f2e2|d2de d2c2|B2Bd A2d2|fdaf f2e2|
f2fg f2e2|d2de d2c2|BcdB e2f2|d8      :|

